X: 367
T: Bir Gemi Yaptırdım
C: Âşık Seyfî
O: Turkey
F: http://compmusic.upf.edu/node/140
N: yeni-cargah--destan--turkaksagi--bir_gemi_yaptirdim--
N: makam= yeni-cargah
N: form= destan
N: usul= turkaksagi = 5/8
M: 5/8
L: 1/16
K: C    
Q: 1/4=180
%%MIDI tuningsystem comma53
z4 G2A2 B2 | c2 B2c4z2  | c4 f2e2 d2 | c2 B2A4G2  | \
w:   |   |   |   | 
G4 A2B2 c2 | d2 ^c2d4z2  | 
w:   |   | 
d4 f2e2 d2 | c2 B2c4z2  | g4 g4 g2 | g4g4z2  | \
w:   |   |   |   | 
g4 _b2a2 g2 | g2 f2e4z2  | 
w:   |   | 
e4 a2g2 f2 | f2 e2d4z2  | d4 f2e2 d2 | c2 B2A4G2  | \
w:   |   |   |   | 
G4 A2B2 c2 | d2 ^c2d4z2  | 
w:   |   | 
d4 f2e2 d2 | c2 B2c4z2  | g8-g2 | g8-g2  | \
w:   |   |  Hey   |   | 
f2gg g2g2 g2 | g2 a2f2 ff3  | 
w:  Bir  ge mi  yap tır dım   |  *  ay rık  kö kün  | 
e4 (3a2g2f2 f2 | f2 fe3 d3e  | edc2 B2c2 z2 | \
w:  den   Bir  yâ re  kap  |  tır dım  *  ta ze   |  so ğa nı    | 
z2 ef3 f3f  | 
w:  Mı sır  ta ne  | 
(3f2f2f2 z2gf f2 | f3ee4z2  | cdd2 ddd4 | \
w:  sin den  *  ni ce  bin   |  gül *  le    |  Ni ye tim  feth_ et mek   | 
z2 de3 (3d2c2B2  | 
w:  Fi ren gis ta  | 
c4 z6 | z4G2 A2B2  | c2B2 c4 z2 | c4f2 e2d2  | \
w:  nı    |   |   |   | 
c2B2 A4 G2 | G4A2 B2c2  | 
w:   |   | 
d2^c2 d4 z2 | d4f2 e2d2  | c2B2 c4 z2 | \
w:   |   |   | 
g4g4g2  | g4 g4 z2 | g4_b2 a2g2  | 
w:   |   |   | 
g2f2 e4 z2 | e4a2 g2f2  | f2e2 d4 z2 | d4f2 e2d2  | \
w:   |   |   |   | 
c2B2 A4 G2 | G4A2 B2c2  | 
w:   |   | 
d2^c2 d4 z2 | d4f2 e2d2  | c2B2 c4 z2 | g8-g2  | g8-g2 | \
w:   |   |   |  Hey   |   | 
f2 ggg2 g2g2  | 
w:  Bir  ge mi  yap tır dım   | 
g2a2 f2ff3 | e4(3a2g2f2f2  | f2fe3d3e | \
w:  *  ay rık  kö kün  |  den   Bir  yâ re  kap  |  tır dım  *  ta ze   | 
ed c2B2 c2z2  | 
w:  so ğa nı    | 
z2ef3f3f | (3f2f2f2z2 gff2  | f3e e4 z2 | \
w:  Mı sır  ta ne  |  sin den  *  ni ce  bin   |  gül *  le    | 
cd d2dd d4  | 
w:  Ni ye tim  feth_ et mek   | 
z2de3(3d2c2B2 | c4z6  | |


